X:1
T:Stola Regia
T:Stola Regia
T:Courtesy of the Cyber Hymnal (http://www.cyberhymnal.org)
T:Courtesy of the Cyber Hymnal (http://www.cyberhymnal.org)
Z:Courtesy of the Cyber Hymnal (http://www.cyberhymnal.org)
%%score { ( 1 2 ) ( 3 4 ) }
L:1/8
Q:1/4=115
M:1/4
K:D
V:1 treble nm="P1"
V:2 treble 
V:3 bass nm="P2"
V:4 bass 
V:1
"^Editor: John Henry Fowler""^( Revision: 12-3-2007 )" A2 |[M:4/4] B2 c2 d2 A2 | A4 G2 F2 | %3
 E2 F2"^( 1889 )" G2 A2 | F6 A2 | B2 c2 d2 A2 | A4 ^G2 B2 | %7
"^John Stainer""^( 1840 - 1901 )" e2 A2 A2 ^G2 | A6 A2 | A2 ^G2 c2 F2 | F4 ^E2 F2 | d2 c2 B2 A2 | %12
 ^G6 B2 | c2 d2 e2 G2 | G4 F2 G2 | A2 B2 E2 E2 |[M:3/4] D6 |] %17
V:2
 F2 |[M:4/4] F2 E2 D2 D2 | D4 D2 F2 | B,2 ^D2 E2 C2 | D6 F2 | F2 E2 D2 D2 | E4 E2 E2 | %7
 E2 F2 E2 D2 | C6 F2 | F2 ^E2 F2 C2 | C4 C2 F2 | F2 E2 F2 F2 | E6 ^G2 | A2 ^G2 =G2 E2 | D4 D2 C2 | %15
 D2 D2 D2 C2 |[M:3/4] D6 |] %17
V:3
 D2 |[M:4/4] B,2 ^A,2 B,2 =A,2 | D4 D2 C2 | B,2 A,2 B,2 A,2 | A,6 D2 | B,2 ^A,2 B,2 D2 | %6
 C4 B,2 ^G,2 | A,2 D2 C2 B,2 | %8
"^1.  In royal robes of splendor,Before the great King’s feet,The princes of His kingdom,The crowned Apostles, meet;To Him their songs adoringWith heart and tongue they bring,Pure hearts and mighty voices—E’en as the angels sing.2.  This Order sheds its lusterO’er all the human race;A court of righteous judgment,The rock of Gospel grace;Rock of His Church, for agesElected and foreknown;Whose glorious Master-BuilderIs Head and Cornerstone.3.  These are the Nazareans,Famed heralds to the world,Who, preaching Christ, His bannerOf victory unfurled;Day unto day shows knowledge;Night utters speech to night;So these to earth’s four cornersTheir wondrous tale recite." A,6 C2 | %9
 C2 C2 C2"^Words: Adam of St. Victor (?-1182) (Stola regni laureatus); translated from Latin to English by Jackson Mason and the compilers of Hymns Ancient and Mo­dern, 1889." A,2 | %10
 B,4 B,2 A,2 | B,2 ^A,2 B,2 B,2 | B,6 E2 | %13
 E2"^4.  Christ’s burden light they proffer,His easy yoke proclaim;The seed of life they scatter,That all may own His Name.The earth brought forth and budded,Where’er their ploughshare ran,And fruits of increase followedThe faith of God made Man.5.  These are the sure foundationOn which the Temple stands;The living stones compactingThat house not made with hands;The gates by which man entersJerusalem the new;The bond which knits togetherThe Gentile and the Jew.6.  Let error flee before them,Let truth extend her way;Let dread of final judgmentTo faith and love give way;That, loosed from our offenses,We then may numbered beAmong Thy saints in gloryAround the throne with Thee." D2 C2 A,2 | %14
 A,4 A,2 G,2 | F,2 B,2 A,2 G,2 |[M:3/4] F,6 |] %17
V:4
 D,2 |[M:4/4] D,2 C,2 B,,2 F,2 | B,4 B,2 A,2 | G,2 F,2 E,2 A,,2 | D,6 D,2 | D,2 C,2 B,,2 F,2 | %6
 E,4 E,2 D,2 | C,2 D,2 E,2 B,2 | A,6 F,2 | C2 B,2 A,2 A,2 | ^G,4 G,2 F,2 | B,,2 D,2 D,2 ^D,2 | %12
 E,6 D2 | C2 B,2 A,2 C,2 | D,4 D,2 E,2 | F,2 G,2 A,2 A,,2 |[M:3/4] D,6 |] %17

